packages/docs/static/images/icon.svg

<svg xmlns="http://www.w3.org/2000/svg" viewBox="0 0 460 500" xmlns:xlink="http://www.w3.org/1999/xlink">
    <defs>
        <linearGradient id="a">
            <stop offset="0" stop-color="#f54773" />
            <stop offset="1" stop-color="#e21d52" />
        </linearGradient>
        <linearGradient id="b" x1="328.973" x2="328.973" y1="302.535" y2="344"
            gradientTransform="matrix(.96274 .27043 -2.28238 8.17965 644.299 -2472.513)" gradientUnits="userSpaceOnUse"
            href="#a" />
        <linearGradient id="c" x1="233.357" x2="233.357" y1="93.14" y2="415.587"
            gradientTransform="matrix(.96065 .27777 -.2935 1.05186 73.677 -71.708)" gradientUnits="userSpaceOnUse"
            href="#a" />
        <linearGradient id="d" x1="233.318" x2="233.318" y1="166.34" y2="342.381"
            gradientTransform="matrix(.9634 .26804 -.5376 1.92665 135.157 -291.933)" gradientUnits="userSpaceOnUse"
            href="#a" />
        <linearGradient id="e" x1="0" x2="0" y1="-128.015" y2="128.015"
            gradientTransform="matrix(-.44979 -.89314 3.65307 -1.81413 32.055 9.462)" gradientUnits="userSpaceOnUse"
            href="#a" />
    </defs>
    <g fill="none" stroke-width="25">
        <path stroke="url(#b)" d="M293.846 302.535 364.1 344" style="transform-box:fill-box"
            transform-origin="50% 50%" />
        <path stroke="url(#c)" stroke-linecap="square" stroke-miterlimit="30"
            d="m321.33 251.114 73.022-2.595c4.405 123.937-127.008 206.164-236.541 148.011-109.534-58.154-115.04-213.074-9.91-278.857 61.247-38.324 140.519-31.184 193.933 17.466l-49.202 54.02"
            filter="none" paint-order="fill" />
        <path stroke="url(#d)" stroke-dashoffset="-14" stroke-miterlimit="4.7"
            d="M292.632 189.159a93 93 0 0 0-4.783-4.07 90 90 0 0 0-4.946-3.657 88 88 0 0 0-10.304-6.101 87 87 0 0 0-10.738-4.518 85 85 0 0 0-5.488-1.68 87 87 0 0 0-16.722-2.793m-16.741.461a89 89 0 0 0-10.933 2.04 90.3 90.3 0 0 0-15.707 5.546 89 89 0 0 0-14.448 8.393 88 88 0 0 0-8.696 7.101 87 87 0 0 0-7.782 8.254 86 86 0 0 0-12.254 19.784 89 89 0 0 0-4.189 11.44 93 93 0 0 0-2.68 12.264 89 89 0 0 0-.966 12.145 86.2 86.2 0 0 0 2.885 23.092 86 86 0 0 0 3.629 10.748 87 87 0 0 0 4.941 10.081 88 88 0 0 0 6.142 9.316 90 90 0 0 0 7.233 8.449 91 91 0 0 0 8.215 7.482 90 90 0 0 0 9.086 6.415 88.5 88.5 0 0 0 15.022 7.403 86.5 86.5 0 0 0 22.051 5.2 86 86 0 0 0 11.644.373m17.93-2.507a92 92 0 0 0 9.535-2.895q1.725-.63 3.413-1.326a89 89 0 0 0 6.586-3.043 89 89 0 0 0 6.252-3.537 87 87 0 0 0 5.896-4.004 89 89 0 0 0 5.52-4.44 88 88 0 0 0 9.831-10.079 88 88 0 0 0 6.235-8.492 86 86 0 0 0 1.848-2.988m7.399-15.973a89 89 0 0 0 2.052-6.801q.446-1.726.821-3.475.377-1.748.682-3.518.307-1.771.54-3.56.235-1.79.395-3.597.162-1.807.248-3.631.087-1.822.098-3.66a87 87 0 0 0-.054-3.687"
            filter="none" paint-order="fill" />
    </g>
    <path fill="url(#e)"
        d="M-15.874 10.672c-6.994-7.768-6.366-19.751 1.403-26.746 7.768-6.995 19.751-6.366 26.745 1.402 6.995 7.769 6.368 19.751-1.401 26.746s-19.752 6.367-26.747-1.402M0-128.015l-25.604 83.669-85.26-19.662L-51.206 0l-59.658 64.008 85.261-19.662L0 128.015l25.603-83.669 85.261 19.662L51.206 0l59.658-64.008-85.261 19.662z"
        transform="rotate(132 59.685 179.212)scale(.3372)" />
    <g transform="translate(256.987 228.805)scale(.17498)" />
</svg>

<svg viewBox="0 0 500 500" xmlns="http://www.w3.org/2000/svg" width="288px" height="288px">
    <defs>
        <linearGradient id="gradient-5-0"
            gradientTransform="matrix(0.962532, 0.271168, -1.096881, 3.931027, 128.002136, -339.044042)"
            gradientUnits="userSpaceOnUse" x1="252.872" x2="252.872" y1="91.975" y2="178.255" href="#gradient-5">
        </linearGradient>
        <linearGradient id="gradient-5">
            <stop stop-color="#f54773" offset="0"></stop>
            <stop stop-color="#e21d52" offset="1"></stop>
        </linearGradient>
        <linearGradient id="gradient-5-1"
            gradientTransform="matrix(0.962739, 0.270435, -2.282381, 8.17965, 644.298995, -2472.513201)"
            gradientUnits="userSpaceOnUse" x1="328.973" x2="328.973" y1="302.535" y2="344" href="#gradient-5">
        </linearGradient>
        <linearGradient id="gradient-5-2"
            gradientTransform="matrix(0.960646, 0.277775, -0.293503, 1.051859, 73.677418, -71.707976)"
            gradientUnits="userSpaceOnUse" x1="233.357" x2="233.357" y1="93.14" y2="415.587" href="#gradient-5">
        </linearGradient>
        <linearGradient id="gradient-5-11"
            gradientTransform="matrix(0.963409, 0.268035, -0.537597, 1.926649, 135.157115, -291.933176)"
            gradientUnits="userSpaceOnUse" x1="233.318" x2="233.318" y1="166.34" y2="342.381" href="#gradient-5">
        </linearGradient>
        <linearGradient id="gradient-5-4"
            gradientTransform="matrix(-0.449788, -0.893135, 3.65307, -1.814132, 32.055191, 9.462093)"
            gradientUnits="userSpaceOnUse" x1="0" x2="0" y1="-128.015" y2="128.015" href="#gradient-5"></linearGradient>
        <linearGradient id="gradient-5-12"
            gradientTransform="matrix(-0.454907, -0.89054, 3.65307, -1.814132, -377.567998, 185.347967)"
            gradientUnits="userSpaceOnUse" x1="-24.663" x2="-24.663" y1="-18.955" y2="237.075" href="#gradient-5">
        </linearGradient>
        <linearGradient id="gradient-5-7"
            gradientTransform="matrix(0.96021, 0.279278, -7.409994, 26.555962, 2301.315107, -7707.758434)"
            gradientUnits="userSpaceOnUse" x1="-282.158" x2="-282.158" y1="263.574" y2="336.566" href="#gradient-5">
        </linearGradient>
        <linearGradient id="gradient-5-13"
            gradientTransform="matrix(0.961629, 0.274356, -7.409995, 26.555962, 2301.7157, -7709.147534)"
            gradientUnits="userSpaceOnUse" x1="-282.158" x2="-282.158" y1="263.574" y2="336.566" href="#gradient-5">
        </linearGradient>
        <linearGradient id="gradient-5-6"
            gradientTransform="matrix(0.977806, -0.20951, 5.842082, 26.944352, -487.655141, -2910.651075)"
            gradientUnits="userSpaceOnUse" x1="-334.571" x2="-334.571" y1="72.923" y2="145.915" href="#gradient-5">
        </linearGradient>
        <linearGradient id="gradient-5-14"
            gradientTransform="matrix(0.978768, -0.204975, 5.84208, 26.94435, -487.333321, -2909.133742)"
            gradientUnits="userSpaceOnUse" x1="-334.571" x2="-334.571" y1="72.923" y2="145.915" href="#gradient-5">
        </linearGradient>
        <linearGradient id="gradient-5-5"
            gradientTransform="matrix(0.088226, 0.9961, -27.420322, 2.872861, 5335.545287, -684.349574)"
            gradientUnits="userSpaceOnUse" x1="69.583" x2="69.583" y1="158.847" y2="231.839" href="#gradient-5">
        </linearGradient>
        <linearGradient id="gradient-5-15"
            gradientTransform="matrix(0.099439, 0.995042, -27.420323, 2.872861, 5334.765234, -684.275949)"
            gradientUnits="userSpaceOnUse" x1="69.583" x2="69.583" y1="158.847" y2="231.839" href="#gradient-5">
        </linearGradient>
        <linearGradient id="gradient-5-3"
            gradientTransform="matrix(-0.253872, -0.967236, 26.733549, -6.741244, 65.668075, 122.517085)"
            gradientUnits="userSpaceOnUse" x1="-4.671" x2="-4.671" y1="-29.972" y2="43.02" href="#gradient-5">
        </linearGradient>
        <linearGradient id="gradient-5-16"
            gradientTransform="matrix(-0.240294, -0.970701, 26.733549, -6.741244, 65.731496, 122.500902)"
            gradientUnits="userSpaceOnUse" x1="-4.671" x2="-4.671" y1="-29.972" y2="43.02" href="#gradient-5">
        </linearGradient>
        <linearGradient id="gradient-5-8"
            gradientTransform="matrix(0.95929, 0.282424, -2.614185, 8.774237, -445.685694, 2804.352828)"
            gradientUnits="userSpaceOnUse" x1="-934.352" x2="-934.352" y1="-324.133" y2="-234.133" href="#gradient-5">
        </linearGradient>
        <linearGradient id="gradient-5-17"
            gradientTransform="matrix(0.957983, 0.286826, -2.614182, 8.774245, -446.906173, 2808.468429)"
            gradientUnits="userSpaceOnUse" x1="-934.352" x2="-934.352" y1="-324.133" y2="-234.133" href="#gradient-5">
        </linearGradient>
        <linearGradient id="gradient-5-10"
            gradientTransform="matrix(0.994713, -0.102699, 0.863054, 9.114626, -460.799204, 292.145571)"
            gradientUnits="userSpaceOnUse" x1="-3.173" x2="-3.173" y1="-83.268" y2="6.732" href="#gradient-5">
        </linearGradient>
        <linearGradient id="gradient-5-18"
            gradientTransform="matrix(0.994778, -0.102063, 0.863055, 9.114626, -460.798983, 292.147604)"
            gradientUnits="userSpaceOnUse" x1="-3.173" x2="-3.173" y1="-83.268" y2="6.732" href="#gradient-5">
        </linearGradient>
        <linearGradient id="gradient-5-9"
            gradientTransform="matrix(0.819153, 0.573575, -5.328305, 7.445034, -1979.703151, 2124.598982)"
            gradientUnits="userSpaceOnUse" x1="-269.883" x2="-269.883" y1="-345.192" y2="-255.191" href="#gradient-5">
        </linearGradient>
        <linearGradient id="gradient-5-19"
            gradientTransform="matrix(0.8047, 0.59368, -5.328303, 7.445036, -1983.602806, 2130.025703)"
            gradientUnits="userSpaceOnUse" x1="-269.883" x2="-269.883" y1="-345.192" y2="-255.191" href="#gradient-5">
        </linearGradient>
    </defs>
    <g>
        <title>Logo</title>
        <g>
            <title>Main</title>
            <line stroke-width="22px" fill-opacity="0" fill="none" stroke="url('#gradient-5-0')" x1="255.925"
                x2="249.819" y1="91.975" y2="178.255"></line>
            <line stroke-width="22px" fill-opacity="0" fill="none" stroke="url('#gradient-5-1')" x1="293.846" x2="364.1"
                y1="302.535" y2="344" style="transform-box: fill-box; transform-origin: 50% 50%;"></line>
            <path fill-rule="evenodd" paint-order="fill" filter="none" stroke-miterlimit="30" stroke-linecap="square"
                stroke-width="22px" fill-opacity="0" fill="url('#gradient-5')" stroke="url('#gradient-5-2')"
                d="M 321.33 251.114 L 394.352 248.519 C 398.757 372.456 267.344 454.683 157.811 396.53 C 48.277 338.376 42.771 183.456 147.901 117.673 C 209.148 79.349 288.42 86.489 341.834 135.139 L 292.632 189.159">
            </path>
            <path stroke-miterlimit="4.7" fill-rule="nonzero" stroke-dashoffset="-14px" paint-order="fill" filter="none"
                stroke-width="22px" fill-opacity="0" fill="url('#gradient-5')" stroke="url('#gradient-5-11')"
                d="M 292.632 189.159 C 291.066 187.733 289.47 186.377 287.849 185.089 C 286.226 183.802 284.577 182.583 282.903 181.432 C 281.23 180.281 279.532 179.197 277.814 178.181 C 276.095 177.165 274.356 176.215 272.599 175.331 C 270.842 174.448 269.066 173.63 267.275 172.877 C 265.484 172.125 263.679 171.437 261.861 170.813 C 260.043 170.189 258.213 169.629 256.373 169.133 C 254.534 168.636 252.686 168.202 250.831 167.831 C 248.976 167.459 247.115 167.15 245.251 166.901 C 243.386 166.654 241.518 166.467 239.651 166.34 M 222.91 166.801 C 221.067 167.028 219.233 167.311 217.409 167.652 C 215.586 167.992 213.774 168.389 211.977 168.841 C 210.179 169.294 208.396 169.802 206.631 170.364 C 204.866 170.927 203.117 171.544 201.389 172.215 C 199.662 172.885 197.954 173.61 196.27 174.387 C 194.586 175.164 192.924 175.994 191.29 176.876 C 189.655 177.758 188.047 178.691 186.468 179.675 C 184.889 180.659 183.339 181.695 181.822 182.78 C 180.304 183.865 178.819 185 177.368 186.184 C 175.918 187.368 174.503 188.601 173.126 189.881 C 171.749 191.162 170.41 192.491 169.112 193.867 C 167.814 195.243 166.557 196.666 165.344 198.135 C 164.131 199.604 162.962 201.12 161.84 202.68 C 160.718 204.241 159.643 205.846 158.618 207.496 C 157.593 209.146 156.618 210.84 155.695 212.578 C 154.773 214.315 153.903 216.096 153.09 217.919 C 152.276 219.742 151.519 221.608 150.819 223.515 C 150.12 225.422 149.48 227.37 148.901 229.359 C 148.323 231.348 147.806 233.377 147.354 235.446 C 146.902 237.515 146.525 239.575 146.221 241.623 C 145.917 243.672 145.687 245.71 145.526 247.735 C 145.366 249.76 145.277 251.771 145.255 253.768 C 145.234 255.764 145.282 257.745 145.395 259.709 C 145.509 261.673 145.688 263.619 145.932 265.546 C 146.175 267.474 146.482 269.381 146.851 271.268 C 147.22 273.154 147.65 275.019 148.14 276.86 C 148.629 278.701 149.178 280.519 149.783 282.31 C 150.389 284.102 151.052 285.869 151.769 287.608 C 152.486 289.346 153.258 291.057 154.083 292.738 C 154.907 294.419 155.783 296.07 156.71 297.689 C 157.636 299.309 158.613 300.896 159.637 302.449 C 160.662 304.003 161.735 305.521 162.852 307.005 C 163.97 308.488 165.133 309.935 166.339 311.344 C 167.546 312.752 168.795 314.123 170.085 315.454 C 171.376 316.784 172.707 318.074 174.077 319.322 C 175.447 320.569 176.856 321.775 178.3 322.936 C 179.745 324.097 181.226 325.213 182.741 326.283 C 184.256 327.353 185.806 328.376 187.386 329.351 C 188.967 330.326 190.58 331.252 192.222 332.127 C 193.864 333.002 195.535 333.827 197.233 334.599 C 198.932 335.371 200.658 336.09 202.408 336.754 C 204.159 337.419 205.934 338.028 207.732 338.58 C 209.53 339.132 211.35 339.627 213.191 340.063 C 215.032 340.499 216.893 340.876 218.771 341.192 C 220.65 341.507 222.547 341.763 224.459 341.954 C 226.372 342.145 228.3 342.273 230.241 342.336 C 232.183 342.399 234.138 342.397 236.103 342.327 M 254.033 339.82 C 256.045 339.327 258.061 338.76 260.078 338.117 C 261.254 337.743 262.417 337.345 263.568 336.925 C 264.718 336.505 265.856 336.063 266.981 335.599 C 268.105 335.135 269.217 334.648 270.315 334.141 C 271.413 333.634 272.497 333.105 273.567 332.556 C 274.638 332.007 275.695 331.437 276.736 330.847 C 277.778 330.257 278.806 329.648 279.819 329.019 C 280.832 328.39 281.83 327.741 282.813 327.073 C 283.796 326.406 284.763 325.72 285.715 325.015 C 286.667 324.311 287.603 323.588 288.524 322.848 C 289.444 322.108 290.348 321.35 291.235 320.575 C 292.123 319.8 292.994 319.007 293.848 318.199 C 294.702 317.39 295.54 316.566 296.359 315.725 C 297.179 314.884 297.981 314.028 298.766 313.157 C 299.551 312.285 300.318 311.398 301.066 310.496 C 301.815 309.595 302.545 308.679 303.257 307.749 C 303.969 306.819 304.662 305.875 305.336 304.917 C 306.011 303.959 306.666 302.989 307.301 302.004 C 307.937 301.021 308.553 300.025 309.149 299.016 M 316.548 283.043 C 316.934 281.927 317.299 280.802 317.641 279.668 C 317.983 278.534 318.303 277.392 318.6 276.242 C 318.897 275.091 319.171 273.933 319.421 272.767 C 319.672 271.602 319.9 270.428 320.103 269.249 C 320.307 268.068 320.488 266.882 320.643 265.689 C 320.8 264.496 320.931 263.296 321.038 262.092 C 321.146 260.887 321.229 259.677 321.286 258.461 C 321.344 257.246 321.377 256.026 321.384 254.801 C 321.392 253.576 321.374 252.347 321.33 251.114">
            </path>
        </g>
        <g id="Br-3yOTDEaBP83UML-jtr" transform="matrix(0.39896, 0.153146, -0.153146, 0.39896, 412.844489, 359.250677)">
            <title>Stars</title>
            <g id="v_rOhgub5qGj28Tyw4pmT"
                transform="matrix(-0.282771, 0.736641, -0.736641, -0.282771, -480.948371, -77.264627)">
                <title>Inner star</title>
                <path stroke-width="0" stroke-dasharray="none" stroke-dashoffset="0" stroke-linejoin="miter"
                    stroke-miterlimit="4" fill-rule="nonzero" opacity="1" fill="url('#gradient-5-4')"
                    stroke="url('#gradient-5-12')"
                    d="M -15.874 10.672 C -22.868 2.904 -22.24 -9.079 -14.471 -16.074 C -6.703 -23.069 5.28 -22.44 12.274 -14.672 C 19.269 -6.903 18.642 5.079 10.873 12.074 C 3.104 19.069 -8.879 18.441 -15.874 10.672 Z M 0 -128.015 L -25.604 -44.346 L -110.864 -64.008 L -51.206 0 L -110.864 64.008 L -25.603 44.346 L 0 128.015 L 25.603 44.346 L 110.864 64.008 L 51.206 0 L 110.864 -64.008 L 25.603 -44.346 L 0 -128.015 Z"
                    stroke-linecap="round"></path>
                <g id="vBL0TyF1yPMQveZycDvgs"
                    transform="matrix(-0.347223, -0.385629, 0.385629, -0.347223, -105.223657, -1.790213)">
                    <title>Balls</title>
                    <path stroke-width="0" stroke-dasharray="none" stroke-dashoffset="0" stroke-linejoin="miter"
                        stroke-miterlimit="4" fill-rule="nonzero" opacity="1" fill="url('#gradient-5-7')"
                        stroke="url('#gradient-5-13')"
                        d="M -282.158 263.574 C -262.012 263.574 -245.662 279.924 -245.662 300.07 C -245.662 320.216 -262.012 336.566 -282.158 336.566 C -302.304 336.566 -318.654 320.216 -318.654 300.07 C -318.654 279.924 -302.304 263.574 -282.158 263.574 Z"
                        stroke-linecap="round" style="transform-box: fill-box; transform-origin: 50% 50%;"></path>
                    <path stroke-width="0" stroke-dasharray="none" stroke-dashoffset="0" stroke-linejoin="miter"
                        stroke-miterlimit="4" fill-rule="nonzero" opacity="1" fill="url('#gradient-5-6')"
                        stroke="url('#gradient-5-14')"
                        d="M -334.571 72.923 C -314.425 72.923 -298.075 89.273 -298.075 109.419 C -298.075 129.565 -314.425 145.915 -334.571 145.915 C -354.717 145.915 -371.067 129.565 -371.067 109.419 C -371.067 89.273 -354.717 72.923 -334.571 72.923 Z"
                        stroke-linecap="round"
                        transform="matrix(0.884382, 0.466763, -0.466763, 0.884382, -0.000001, 0.000008)"
                        style="transform-box: fill-box; transform-origin: 50% 50%;"></path>
                    <path stroke-width="0" stroke-dasharray="none" stroke-dashoffset="0" stroke-linejoin="miter"
                        stroke-miterlimit="4" fill-rule="nonzero" opacity="1" fill="url('#gradient-5-5')"
                        stroke="url('#gradient-5-15')"
                        d="M 69.583 158.847 C 89.729 158.847 106.079 175.197 106.079 195.343 C 106.079 215.489 89.729 231.839 69.583 231.839 C 49.437 231.839 33.087 215.489 33.087 195.343 C 33.087 175.197 49.437 158.847 69.583 158.847 Z"
                        stroke-linecap="round"
                        transform="matrix(0.36767, -0.929956, 0.929956, 0.36767, -0.000018, -0.000043)"
                        style="transform-box: fill-box; transform-origin: 50% 50%;"></path>
                    <path stroke-width="0" stroke-dasharray="none" stroke-dashoffset="0" stroke-linejoin="miter"
                        stroke-miterlimit="4" fill-rule="nonzero" opacity="1" fill="url('#gradient-5-3')"
                        stroke="url('#gradient-5-16')"
                        d="M -4.671 -29.972 C 15.475 -29.972 31.825 -13.622 31.825 6.524 C 31.825 26.67 15.475 43.02 -4.671 43.02 C -24.817 43.02 -41.167 26.67 -41.167 6.524 C -41.167 -13.622 -24.817 -29.972 -4.671 -29.972 Z"
                        stroke-linecap="round"
                        transform="matrix(-0.496122, 0.868253, -0.868253, -0.496122, 0.000072, -0.000004)"
                        style="transform-box: fill-box; transform-origin: 50% 50%;"></path>
                </g>
            </g>
            <path stroke-width="1" stroke-dasharray="none" stroke-dashoffset="0" stroke-linejoin="miter"
                stroke-miterlimit="4" fill-rule="nonzero" opacity="1" fill="url('#gradient-5-8')"
                stroke="url('#gradient-5-17')"
                d="M -934.352 -234.133 L -920.742 -265.523 L -889.352 -279.133 L -920.742 -292.743 L -934.352 -324.133 L -947.962 -292.743 L -979.352 -279.133 L -947.962 -265.523 L -934.352 -234.133 Z"
                stroke-linecap="round" transform="matrix(0.927184, -0.374606, 0.374606, 0.927184, 0, 0)"
                style="transform-box: fill-box; transform-origin: 50% 50%;"></path>
            <path stroke-width="1" stroke-dasharray="none" stroke-dashoffset="0" stroke-linejoin="miter"
                stroke-miterlimit="4" fill-rule="nonzero" opacity="1" fill="url('#gradient-5-10')"
                stroke="url('#gradient-5-18')"
                d="M -3.173 6.732 L 10.437 -24.658 L 41.827 -38.268 L 10.437 -51.878 L -3.173 -83.268 L -16.783 -51.878 L -48.173 -38.268 L -16.783 -24.658 L -3.173 6.732 Z"
                stroke-linecap="round"></path>
            <path stroke-width="1" stroke-dasharray="none" stroke-dashoffset="0" stroke-linejoin="miter"
                stroke-miterlimit="4" fill-rule="nonzero" opacity="1" fill="url('#gradient-5-9')"
                stroke="url('#gradient-5-19')"
                d="M -269.883 -255.191 L -256.273 -286.582 L -224.883 -300.192 L -256.273 -313.802 L -269.883 -345.192 L -283.493 -313.802 L -314.883 -300.192 L -283.493 -286.582 L -269.883 -255.191 Z"
                stroke-linecap="round" transform="matrix(0.754711, -0.656058, 0.656058, 0.754711, -0.000008, 0.000024)"
                style="transform-box: fill-box; transform-origin: 50% 50%;"></path>
        </g>
    </g>
</svg>
